X: 8853
T: Culfadda, The
R: reel
M: 4/4
K: Gmajor
A|BedB AcBA|GBAG EFGE|D~B,3 DEGA|BGdB A2GA|
BedB AcBA|GBAG EFGE|D~B,3 DEGA|BGAF ~G3:|
B|~d3B cBAB|GABG AGEG|DG~G2 DGBd|cBAG EGAB|
~c3e dB~B2|edef gdBG|DG~G2 DGBe|dBAB ~G3:|

